X:32
T:Bottom of the Puch Bowl. LIT.032, The
M:2/2
Q:1/4=170
L:1/8
B:Wm. Litten MS, 1802
Z:Village Music Project 2017 Anne Wride
K:D
FE | D2D2 d3e | d2D2 FGAF | E2E2 efgf |e2E2 FGAF |
D2D2 d3e | fedB d3A | B3A A3E | F2D2D2 :|
|: de | fedB ABde | fedB d3A | B3d ABde |f2e2e2de |
fedB ABde | fedB d3A | BdBF ABAE | F2D2D2 :|

